X:1
T:Lov og Takkesang
T:Lov og Takkesang
T:Melodi af J. Crüger
T:Joh. D. Behrens
T:M. Rinckardt
C:Joh. D. Behrens
Z:M. Rinkardt
%%score [ 1 2 3 4 ]
L:1/8
Q:1/4=92
M:4/4
K:A
V:1 treble-8 nm="T1"
V:2 treble-8 nm="T2"
V:3 bass nm="B1"
V:4 bass nm="B2"
V:1
!f!"^Andante" e2 | e3 e f2 f2 | e4 z2 c2 | d2 c2 B2 c2 | B4 A2 :|!mf! B2 | B3 B c2 c2 | B4 z2 B2 | %8
w: 1.Nu|tak- ker al- le|Gud med|Hjer- te, Mund og|Hæn- der,|1.som|alt fra Mo- ders|Liv paa|
w: som|o- ver- flø- digt|Godt os|u- for- skyldt til-|sen- der,|2.i|Naa- de al- tid|staa hos|
w: 2.Den|e- vig ri- ge|Gud han|os frem- de- les|un- de||||
w: Sjæls|Glæ- de, Ro og|Fred; han|gi- ve, at vi|kun- de||||
 c2 e2!<(! e2 ^d2!<)! | e4 z2 e2 | f2 e2!>(! d2 c2!>)! | d4 z2 c2 | B2 c2 B2 B2 | !fermata!A4 z2 |] %14
w: os har naa- dig|tænkt, og|al Nød- tørf- tig-|hed saa|ri- ge- li- gen|skjænkt.|
w: ham, og ved vor|Bøn faa|Hjælp i Nød og|Død, til-|sidst en Naa- de-|løn.|
w: ||||||
w: ||||||
V:2
!f! c2 | c3 c d2 d2 | c4 z2 A2 | A2 A2 G2 A2 | (A2 G2) E2 :|!mf! G2 | G3 G A2 A2 | G4 z2 G2 | %8
w: 1.Nu|tak- ker al- le|Gud med|Hjer- te, Mund og|Hæn- * der,|1.som|alt fra Mo- ders|Liv paa|
w: som|o- ver- flø- digt|Godt os|u- for- skyldt til-|sen- * der,|2.i|Naa- de al- tid|staa hos|
w: 2.Den|e- vig ri- ge|Gud han|os frem- de- les|un- * de||||
w: Sjæls|Glæ- de, Ro og|Fred; han|gi- ve, at vi|kun- * de||||
 A2 B2!<(! c2 B2!<)! | B4 z2 c2 | d2 A2!>(! A2 A2!>)! | A4 z2 A2 | G2 A2 A2 G2 | !fermata!E4 z2 |] %14
w: os har naa- dig|tænkt, og|al Nød- tørf- tig-|hed saa|ri- ge- li- gen|skjænkt.|
w: ham, og ved vor|Bøn faa|Hjælp i Nød og|Død, til-|sidst en Naa- de-|løn.|
w: ||||||
w: ||||||
V:3
!f! A,2 | A,3 A, A,2 A,2 | A,4 z2 E,2 | F,2 E,2 E,2 E,2 | (F,2 E,2) C,2 :|!mf! E,2 | %6
w: 1.Nu|tak- ker al- le|Gud med|Hjer- te, Mund og|Hæn- * der,|1.som|
w: som|o- ver- flø- digt|Godt os|u- for- skyldt til-|sen- * der,|2.i|
w: 2.Den|e- vig ri- ge|Gud han|os frem- de- les|un- * de||
w: Sjæls|Glæ- de, Ro og|Fred; han|gi- ve, at vi|kun- * de||
 E,3 E, E,2 E,2 | E,4 z2 E,2 | A,2 B,2!<(! A,2 A,2!<)! | G,4 z2 A,2 | A,2 E,2!>(! F,2 =G,2!>)! | %11
w: alt fra Mo- ders|Liv paa|os har naa- dig|tænkt, og|al Nød- tørf- tig-|
w: Naa- de al- tid|staa hos|ham, og ved vor|Bøn faa|Hjælp i Nød og|
w: |||||
w: |||||
 F,4 z2 E,2 | E,2 E,2 F,2 E,2 | !fermata!C,4 z2 |] %14
w: hed saa|ri- ge- li- gen|skjænkt.|
w: Død, til-|sidst en Naa- de-|løn.|
w: |||
w: |||
V:4
!f! A,,2 | A,,3 A,, D,2 D,2 | A,,4 z2 A,,2 | D,2 A,,2 E,2 C,2 | (D,2 E,2) A,,2 :|!mf! E,2 | %6
w: 1.Nu|tak- ker al- le|Gud med|Hjer- te, Mund og|Hæn- * der,|1.som|
w: som|o- ver- flø- digt|Godt os|u- for- skyldt til-|sen- * der,|2.i|
w: 2.Den|e- vig ri- ge|Gud han|os frem- de- les|un- * de||
w: Sjæls|Glæ- de, Ro og|Fred; han|gi- ve, at vi|kun- * de||
 E,3 E, A,,2 C,2 | E,4 z2 E,2 | A,2 G,2!<(! F,2 F,2!<)! | E,4 z2 A,,2 | D,2 C,2!>(! D,2 A,,2!>)! | %11
w: alt fra Mo- ders|Liv paa|os har naa- dig|tænkt, og|al Nød- tørf- tig-|
w: Naa- de al- tid|staa hos|ham, og ved vor|Bøn faa|Hjælp i Nød og|
w: |||||
w: |||||
 D,4 z2 A,,2 | E,2 C,2 D,2 E,2 | !fermata!A,,4 z2 |] %14
w: hed saa|ri- ge- li- gen|skjænkt.|
w: Død, til-|sidst en Naa- de-|løn.|
w: |||
w: |||

